X:1
T:Indeed Pretty Polly
M:3/4
L:1/4
K:F
 F| C D G| F F A| G G G| D C C| C A E| A/2A/2 GA/2-G/2| F CD/2-F/2|\
 F2 C/2C/2| FG/2-A/2 B| c2 c| D B/2c/2B/2-G/2| F2 A/2G/2| F A B| c/2A/2 F c|\
 BD/2-E/2 F| F/2E/2 C C| A3/2 G/2 F| A G A/2G/2| F CD/2-F/2| F2||
